images/3233165.svg

<?xml version="1.0" encoding="UTF-8"?>
<svg xmlns="http://www.w3.org/2000/svg" xmlns:xlink="http://www.w3.org/1999/xlink" width="300pt" height="300pt" viewBox="0 0 300 300" version="1.1">
<defs>
<g>
<symbol overflow="visible" id="glyph0-0">
<path style="stroke:none;" d="M 0.640625 2.296875 L 0.640625 -9.171875 L 7.140625 -9.171875 L 7.140625 2.296875 Z M 1.375 1.578125 L 6.421875 1.578125 L 6.421875 -8.4375 L 1.375 -8.4375 Z M 1.375 1.578125 "/>
</symbol>
<symbol overflow="visible" id="glyph0-1">
<path style="stroke:none;" d="M 1.28125 -9.484375 L 3 -9.484375 L 7.203125 -1.546875 L 7.203125 -9.484375 L 8.453125 -9.484375 L 8.453125 0 L 6.71875 0 L 2.515625 -7.921875 L 2.515625 0 L 1.28125 0 Z M 1.28125 -9.484375 "/>
</symbol>
<symbol overflow="visible" id="glyph0-2">
<path style="stroke:none;" d="M 5.125 -8.609375 C 4.1875 -8.609375 3.441406 -8.257812 2.890625 -7.5625 C 2.347656 -6.875 2.078125 -5.929688 2.078125 -4.734375 C 2.078125 -3.535156 2.347656 -2.585938 2.890625 -1.890625 C 3.441406 -1.203125 4.1875 -0.859375 5.125 -0.859375 C 6.050781 -0.859375 6.785156 -1.203125 7.328125 -1.890625 C 7.878906 -2.585938 8.15625 -3.535156 8.15625 -4.734375 C 8.15625 -5.929688 7.878906 -6.875 7.328125 -7.5625 C 6.785156 -8.257812 6.050781 -8.609375 5.125 -8.609375 Z M 5.125 -9.65625 C 6.445312 -9.65625 7.503906 -9.207031 8.296875 -8.3125 C 9.097656 -7.414062 9.5 -6.222656 9.5 -4.734375 C 9.5 -3.234375 9.097656 -2.035156 8.296875 -1.140625 C 7.503906 -0.253906 6.445312 0.1875 5.125 0.1875 C 3.789062 0.1875 2.722656 -0.253906 1.921875 -1.140625 C 1.128906 -2.035156 0.734375 -3.234375 0.734375 -4.734375 C 0.734375 -6.222656 1.128906 -7.414062 1.921875 -8.3125 C 2.722656 -9.207031 3.789062 -9.65625 5.125 -9.65625 Z M 5.125 -9.65625 "/>
</symbol>
</g>
</defs>
<g id="surface46577">
<rect x="0" y="0" width="300" height="300" style="fill:rgb(100%,100%,100%);fill-opacity:1;stroke:none;"/>
<path style="fill:none;stroke-width:1.2;stroke-linecap:butt;stroke-linejoin:miter;stroke:rgb(0%,0%,0%);stroke-opacity:1;stroke-miterlimit:10;" d="M 35.25 49.125 L 54.285156 77.949219 "/>
<path style="fill:none;stroke-width:1.2;stroke-linecap:butt;stroke-linejoin:miter;stroke:rgb(0%,0%,0%);stroke-opacity:1;stroke-miterlimit:10;" d="M 54.285156 77.949219 L 46.566406 93.394531 "/>
<path style="fill:none;stroke-width:1.2;stroke-linecap:butt;stroke-linejoin:miter;stroke:rgb(0%,0%,100%);stroke-opacity:1;stroke-miterlimit:10;" d="M 46.566406 93.394531 L 38.84375 108.84375 "/>
<path style="fill:none;stroke-width:1.2;stroke-linecap:butt;stroke-linejoin:miter;stroke:rgb(0%,0%,0%);stroke-opacity:1;stroke-miterlimit:10;" d="M 60.011719 84.671875 L 53.835938 97.027344 "/>
<path style="fill:none;stroke-width:1.2;stroke-linecap:butt;stroke-linejoin:miter;stroke:rgb(0%,0%,100%);stroke-opacity:1;stroke-miterlimit:10;" d="M 53.835938 97.027344 L 47.660156 109.386719 "/>
<path style="fill:none;stroke-width:1.2;stroke-linecap:butt;stroke-linejoin:miter;stroke:rgb(0%,0%,0%);stroke-opacity:1;stroke-miterlimit:10;" d="M 88.765625 75.871094 L 54.285156 77.949219 "/>
<path style="fill:none;stroke-width:1.2;stroke-linecap:butt;stroke-linejoin:miter;stroke:rgb(0%,0%,100%);stroke-opacity:1;stroke-miterlimit:10;" d="M 38.84375 108.84375 L 48.363281 123.253906 "/>
<path style="fill:none;stroke-width:1.2;stroke-linecap:butt;stroke-linejoin:miter;stroke:rgb(0%,0%,0%);stroke-opacity:1;stroke-miterlimit:10;" d="M 48.363281 123.253906 L 57.882812 137.664062 "/>
<path style=" stroke:none;fill-rule:nonzero;fill:rgb(100%,100%,100%);fill-opacity:1;" d="M 33.84375 100.84375 L 43.84375 100.84375 L 43.84375 116.84375 L 33.84375 116.84375 Z M 33.84375 100.84375 "/>
<g style="fill:rgb(0%,0%,100%);fill-opacity:1;">
  <use xlink:href="#glyph0-1" x="33.84375" y="113.219727"/>
</g>
<path style="fill:none;stroke-width:1.2;stroke-linecap:butt;stroke-linejoin:miter;stroke:rgb(0%,0%,0%);stroke-opacity:1;stroke-miterlimit:10;" d="M 57.882812 137.664062 L 42.441406 168.5625 "/>
<path style="fill:none;stroke-width:1.2;stroke-linecap:butt;stroke-linejoin:miter;stroke:rgb(0%,0%,0%);stroke-opacity:1;stroke-miterlimit:10;" d="M 63.605469 144.386719 L 51.253906 169.105469 "/>
<path style="fill:none;stroke-width:1.2;stroke-linecap:butt;stroke-linejoin:miter;stroke:rgb(0%,0%,0%);stroke-opacity:1;stroke-miterlimit:10;" d="M 92.359375 135.589844 L 57.882812 137.664062 "/>
<path style="fill:none;stroke-width:1.2;stroke-linecap:butt;stroke-linejoin:miter;stroke:rgb(0%,0%,0%);stroke-opacity:1;stroke-miterlimit:10;" d="M 42.441406 168.5625 L 51.957031 182.972656 "/>
<path style="fill:none;stroke-width:1.2;stroke-linecap:butt;stroke-linejoin:miter;stroke:rgb(0%,0%,100%);stroke-opacity:1;stroke-miterlimit:10;" d="M 51.957031 182.972656 L 61.476562 197.382812 "/>
<path style="fill:none;stroke-width:1.2;stroke-linecap:butt;stroke-linejoin:miter;stroke:rgb(0%,0%,100%);stroke-opacity:1;stroke-miterlimit:10;" d="M 61.476562 197.382812 L 78.714844 196.34375 "/>
<path style="fill:none;stroke-width:1.2;stroke-linecap:butt;stroke-linejoin:miter;stroke:rgb(0%,0%,0%);stroke-opacity:1;stroke-miterlimit:10;" d="M 78.714844 196.34375 L 95.953125 195.308594 "/>
<path style="fill:none;stroke-width:1.2;stroke-linecap:butt;stroke-linejoin:miter;stroke:rgb(0%,0%,100%);stroke-opacity:1;stroke-miterlimit:10;" d="M 64.4375 189.0625 L 78.226562 188.234375 "/>
<path style="fill:none;stroke-width:1.2;stroke-linecap:butt;stroke-linejoin:miter;stroke:rgb(0%,0%,0%);stroke-opacity:1;stroke-miterlimit:10;" d="M 78.226562 188.234375 L 92.019531 187.402344 "/>
<path style=" stroke:none;fill-rule:nonzero;fill:rgb(100%,100%,100%);fill-opacity:1;" d="M 56.476562 189.382812 L 66.476562 189.382812 L 66.476562 205.382812 L 56.476562 205.382812 Z M 56.476562 189.382812 "/>
<g style="fill:rgb(0%,0%,100%);fill-opacity:1;">
  <use xlink:href="#glyph0-1" x="56.476562" y="201.758789"/>
</g>
<path style="fill:none;stroke-width:1.2;stroke-linecap:butt;stroke-linejoin:miter;stroke:rgb(0%,0%,0%);stroke-opacity:1;stroke-miterlimit:10;" d="M 95.953125 195.308594 L 103.675781 179.859375 "/>
<path style="fill:none;stroke-width:1.2;stroke-linecap:butt;stroke-linejoin:miter;stroke:rgb(0%,0%,100%);stroke-opacity:1;stroke-miterlimit:10;" d="M 103.675781 179.859375 L 111.394531 164.410156 "/>
<path style="fill:none;stroke-width:1.2;stroke-linecap:butt;stroke-linejoin:miter;stroke:rgb(0%,0%,0%);stroke-opacity:1;stroke-miterlimit:10;" d="M 95.953125 195.308594 L 105.472656 209.71875 "/>
<path style="fill:none;stroke-width:1.2;stroke-linecap:butt;stroke-linejoin:miter;stroke:rgb(100%,0%,0%);stroke-opacity:1;stroke-miterlimit:10;" d="M 105.472656 209.71875 L 114.992188 224.128906 "/>
<path style="fill:none;stroke-width:1.2;stroke-linecap:butt;stroke-linejoin:miter;stroke:rgb(0%,0%,100%);stroke-opacity:1;stroke-miterlimit:10;" d="M 111.394531 164.410156 L 101.878906 150 "/>
<path style="fill:none;stroke-width:1.2;stroke-linecap:butt;stroke-linejoin:miter;stroke:rgb(0%,0%,0%);stroke-opacity:1;stroke-miterlimit:10;" d="M 101.878906 150 L 92.359375 135.589844 "/>
<path style="fill:none;stroke-width:1.2;stroke-linecap:butt;stroke-linejoin:miter;stroke:rgb(0%,0%,100%);stroke-opacity:1;stroke-miterlimit:10;" d="M 102.710938 166.007812 L 95.097656 154.480469 "/>
<path style="fill:none;stroke-width:1.2;stroke-linecap:butt;stroke-linejoin:miter;stroke:rgb(0%,0%,0%);stroke-opacity:1;stroke-miterlimit:10;" d="M 95.097656 154.480469 L 87.480469 142.949219 "/>
<path style=" stroke:none;fill-rule:nonzero;fill:rgb(100%,100%,100%);fill-opacity:1;" d="M 106.394531 156.410156 L 116.394531 156.410156 L 116.394531 172.410156 L 106.394531 172.410156 Z M 106.394531 156.410156 "/>
<g style="fill:rgb(0%,0%,100%);fill-opacity:1;">
  <use xlink:href="#glyph0-1" x="106.394531" y="168.786133"/>
</g>
<path style="fill:none;stroke-width:1.2;stroke-linecap:butt;stroke-linejoin:miter;stroke:rgb(0%,0%,0%);stroke-opacity:1;stroke-miterlimit:10;" d="M 92.359375 135.589844 L 100.082031 120.140625 "/>
<path style="fill:none;stroke-width:1.2;stroke-linecap:butt;stroke-linejoin:miter;stroke:rgb(0%,0%,100%);stroke-opacity:1;stroke-miterlimit:10;" d="M 100.082031 120.140625 L 107.800781 104.691406 "/>
<path style="fill:none;stroke-width:1.2;stroke-linecap:butt;stroke-linejoin:miter;stroke:rgb(0%,0%,100%);stroke-opacity:1;stroke-miterlimit:10;" d="M 107.800781 104.691406 L 98.28125 90.28125 "/>
<path style="fill:none;stroke-width:1.2;stroke-linecap:butt;stroke-linejoin:miter;stroke:rgb(0%,0%,0%);stroke-opacity:1;stroke-miterlimit:10;" d="M 98.28125 90.28125 L 88.765625 75.871094 "/>
<path style="fill:none;stroke-width:1.2;stroke-linecap:butt;stroke-linejoin:miter;stroke:rgb(0%,0%,100%);stroke-opacity:1;stroke-miterlimit:10;" d="M 107.800781 104.691406 L 125.039062 103.65625 "/>
<path style="fill:none;stroke-width:1.2;stroke-linecap:butt;stroke-linejoin:miter;stroke:rgb(0%,0%,0%);stroke-opacity:1;stroke-miterlimit:10;" d="M 125.039062 103.65625 L 142.277344 102.617188 "/>
<path style=" stroke:none;fill-rule:nonzero;fill:rgb(100%,100%,100%);fill-opacity:1;" d="M 102.800781 96.691406 L 112.800781 96.691406 L 112.800781 112.691406 L 102.800781 112.691406 Z M 102.800781 96.691406 "/>
<g style="fill:rgb(0%,0%,100%);fill-opacity:1;">
  <use xlink:href="#glyph0-1" x="102.800781" y="109.067383"/>
</g>
<path style="fill:none;stroke-width:1.2;stroke-linecap:butt;stroke-linejoin:miter;stroke:rgb(0%,0%,0%);stroke-opacity:1;stroke-miterlimit:10;" d="M 92.398438 77.6875 L 100.121094 62.238281 "/>
<path style="fill:none;stroke-width:1.2;stroke-linecap:butt;stroke-linejoin:miter;stroke:rgb(100%,0%,0%);stroke-opacity:1;stroke-miterlimit:10;" d="M 100.121094 62.238281 L 107.839844 46.792969 "/>
<path style="fill:none;stroke-width:1.2;stroke-linecap:butt;stroke-linejoin:miter;stroke:rgb(0%,0%,0%);stroke-opacity:1;stroke-miterlimit:10;" d="M 85.128906 74.054688 L 92.851562 58.605469 "/>
<path style="fill:none;stroke-width:1.2;stroke-linecap:butt;stroke-linejoin:miter;stroke:rgb(100%,0%,0%);stroke-opacity:1;stroke-miterlimit:10;" d="M 92.851562 58.605469 L 100.570312 43.160156 "/>
<path style=" stroke:none;fill-rule:nonzero;fill:rgb(100%,100%,100%);fill-opacity:1;" d="M 99.207031 36.976562 L 110.207031 36.976562 L 110.207031 52.976562 L 99.207031 52.976562 Z M 99.207031 36.976562 "/>
<g style="fill:rgb(100%,0%,0%);fill-opacity:1;">
  <use xlink:href="#glyph0-2" x="99.207031" y="49.352539"/>
</g>
<path style="fill:none;stroke-width:1.2;stroke-linecap:butt;stroke-linejoin:miter;stroke:rgb(0%,0%,0%);stroke-opacity:1;stroke-miterlimit:10;" d="M 142.277344 102.617188 L 161.316406 131.4375 "/>
<path style="fill:none;stroke-width:1.2;stroke-linecap:butt;stroke-linejoin:miter;stroke:rgb(0%,0%,0%);stroke-opacity:1;stroke-miterlimit:10;" d="M 161.316406 131.4375 L 195.792969 129.363281 "/>
<path style="fill:none;stroke-width:1.2;stroke-linecap:butt;stroke-linejoin:miter;stroke:rgb(0%,0%,0%);stroke-opacity:1;stroke-miterlimit:10;" d="M 195.792969 129.363281 L 214.832031 158.183594 "/>
<path style="fill:none;stroke-width:1.2;stroke-linecap:butt;stroke-linejoin:miter;stroke:rgb(0%,0%,0%);stroke-opacity:1;stroke-miterlimit:10;" d="M 204.480469 127.765625 L 219.707031 150.824219 "/>
<path style="fill:none;stroke-width:1.2;stroke-linecap:butt;stroke-linejoin:miter;stroke:rgb(0%,0%,0%);stroke-opacity:1;stroke-miterlimit:10;" d="M 211.234375 98.464844 L 195.792969 129.363281 "/>
<path style="fill:none;stroke-width:1.2;stroke-linecap:butt;stroke-linejoin:miter;stroke:rgb(0%,0%,0%);stroke-opacity:1;stroke-miterlimit:10;" d="M 214.832031 158.183594 L 249.308594 156.109375 "/>
<path style="fill:none;stroke-width:1.2;stroke-linecap:butt;stroke-linejoin:miter;stroke:rgb(0%,0%,0%);stroke-opacity:1;stroke-miterlimit:10;" d="M 249.308594 156.109375 L 264.75 125.210938 "/>
<path style="fill:none;stroke-width:1.2;stroke-linecap:butt;stroke-linejoin:miter;stroke:rgb(0%,0%,0%);stroke-opacity:1;stroke-miterlimit:10;" d="M 243.582031 149.386719 L 255.9375 124.667969 "/>
<path style="fill:none;stroke-width:1.2;stroke-linecap:butt;stroke-linejoin:miter;stroke:rgb(0%,0%,0%);stroke-opacity:1;stroke-miterlimit:10;" d="M 264.75 125.210938 L 245.714844 96.390625 "/>
<path style="fill:none;stroke-width:1.2;stroke-linecap:butt;stroke-linejoin:miter;stroke:rgb(0%,0%,0%);stroke-opacity:1;stroke-miterlimit:10;" d="M 245.714844 96.390625 L 211.234375 98.464844 "/>
<path style="fill:none;stroke-width:1.2;stroke-linecap:butt;stroke-linejoin:miter;stroke:rgb(0%,0%,0%);stroke-opacity:1;stroke-miterlimit:10;" d="M 242.753906 104.710938 L 215.171875 106.371094 "/>
<path style="fill:none;stroke-width:1.2;stroke-linecap:butt;stroke-linejoin:miter;stroke:rgb(100%,0%,0%);stroke-opacity:1;stroke-miterlimit:10;" d="M 114.992188 224.128906 L 107.269531 239.578125 "/>
<path style="fill:none;stroke-width:1.2;stroke-linecap:butt;stroke-linejoin:miter;stroke:rgb(0%,0%,0%);stroke-opacity:1;stroke-miterlimit:10;" d="M 107.269531 239.578125 L 99.550781 255.023438 "/>
<path style=" stroke:none;fill-rule:nonzero;fill:rgb(100%,100%,100%);fill-opacity:1;" d="M 109.992188 216.128906 L 120.992188 216.128906 L 120.992188 232.128906 L 109.992188 232.128906 Z M 109.992188 216.128906 "/>
<g style="fill:rgb(100%,0%,0%);fill-opacity:1;">
  <use xlink:href="#glyph0-2" x="109.992188" y="228.504883"/>
</g>
</g>
</svg>

<svg xmlns="http://www.w3.org/2000/svg" xmlns:xlink="http://www.w3.org/1999/xlink" width="300pt" height="300pt" viewBox="0 0 300 300"><defs><symbol overflow="visible"><path d="M.64 2.297v-11.47h6.5v11.47zm.735-.72h5.047V-8.436H1.375zm0 0"/></symbol><symbol overflow="visible" id="a"><path d="M1.28-9.484H3l4.203 7.937v-7.937h1.25V0H6.72L2.515-7.922V0H1.28zm0 0"/></symbol><symbol overflow="visible" id="b"><path d="M5.125-8.61c-.938 0-1.684.352-2.234 1.047-.542.688-.812 1.633-.812 2.83 0 1.198.27 2.147.813 2.842.55.687 1.297 1.03 2.235 1.03.926 0 1.66-.343 2.203-1.03.55-.696.828-1.645.828-2.844 0-1.196-.277-2.14-.828-2.829-.543-.695-1.277-1.046-2.203-1.046zm0-1.046c1.32 0 2.38.45 3.172 1.344.8.898 1.203 2.09 1.203 3.578 0 1.5-.402 2.7-1.203 3.593C7.504-.255 6.445.186 5.125.186c-1.336 0-2.402-.44-3.203-1.328C1.13-2.036.734-3.235.734-4.735c0-1.49.395-2.68 1.188-3.579.8-.894 1.867-1.343 3.203-1.343zm0 0"/></symbol></defs><g><path fill="#fff" d="M0 0h300v300H0z"/><path d="M35.25 49.125L54.285 77.95M54.285 77.95l-7.72 15.445" stroke-width="1.2" stroke="#000" stroke-miterlimit="10" fill="none"/><path d="M46.566 93.395l-7.722 15.45" stroke-width="1.2" stroke="#00f" stroke-miterlimit="10" fill="none"/><path d="M60.012 84.672l-6.176 12.355" stroke-width="1.2" stroke="#000" stroke-miterlimit="10" fill="none"/><path d="M53.836 97.027l-6.176 12.36" stroke-width="1.2" stroke="#00f" stroke-miterlimit="10" fill="none"/><path d="M88.766 75.87l-34.48 2.08" stroke-width="1.2" stroke="#000" stroke-miterlimit="10" fill="none"/><path d="M38.844 108.844l9.52 14.41" stroke-width="1.2" stroke="#00f" stroke-miterlimit="10" fill="none"/><path d="M48.363 123.254l9.52 14.41" stroke-width="1.2" stroke="#000" stroke-miterlimit="10" fill="none"/><path d="M33.844 100.844h10v16h-10zm0 0" fill="#fff"/><use xlink:href="#a" x="33.844" y="113.22" fill="#00f"/><path d="M57.883 137.664l-15.442 30.9M63.605 144.387l-12.35 24.718M92.36 135.59l-34.477 2.074M42.44 168.563l9.517 14.41" stroke-width="1.2" stroke="#000" stroke-miterlimit="10" fill="none"/><path d="M51.957 182.973l9.52 14.41M61.477 197.383l17.238-1.04" stroke-width="1.2" stroke="#00f" stroke-miterlimit="10" fill="none"/><path d="M78.715 196.344l17.238-1.035" stroke-width="1.2" stroke="#000" stroke-miterlimit="10" fill="none"/><path d="M64.438 189.063l13.79-.83" stroke-width="1.2" stroke="#00f" stroke-miterlimit="10" fill="none"/><path d="M78.227 188.234l13.793-.832" stroke-width="1.2" stroke="#000" stroke-miterlimit="10" fill="none"/><path d="M56.477 189.383h10v16h-10zm0 0" fill="#fff"/><use xlink:href="#a" x="56.477" y="201.759" fill="#00f"/><path d="M95.953 195.31l7.723-15.45" stroke-width="1.2" stroke="#000" stroke-miterlimit="10" fill="none"/><path d="M103.676 179.86l7.72-15.45" stroke-width="1.2" stroke="#00f" stroke-miterlimit="10" fill="none"/><path d="M95.953 195.31l9.52 14.41" stroke-width="1.2" stroke="#000" stroke-miterlimit="10" fill="none"/><path d="M105.473 209.72l9.52 14.41" stroke-width="1.2" stroke="#f00" stroke-miterlimit="10" fill="none"/><path d="M111.395 164.41L101.88 150" stroke-width="1.2" stroke="#00f" stroke-miterlimit="10" fill="none"/><path d="M101.88 150l-9.52-14.41" stroke-width="1.2" stroke="#000" stroke-miterlimit="10" fill="none"/><path d="M102.71 166.008L95.1 154.48" stroke-width="1.2" stroke="#00f" stroke-miterlimit="10" fill="none"/><path d="M95.098 154.48l-7.618-11.53" stroke-width="1.2" stroke="#000" stroke-miterlimit="10" fill="none"/><path d="M106.395 156.41h10v16h-10zm0 0" fill="#fff"/><use xlink:href="#a" x="106.395" y="168.786" fill="#00f"/><path d="M92.36 135.59l7.722-15.45" stroke-width="1.2" stroke="#000" stroke-miterlimit="10" fill="none"/><path d="M100.082 120.14l7.72-15.45M107.8 104.69l-9.52-14.41" stroke-width="1.2" stroke="#00f" stroke-miterlimit="10" fill="none"/><path d="M98.28 90.28l-9.514-14.41" stroke-width="1.2" stroke="#000" stroke-miterlimit="10" fill="none"/><path d="M107.8 104.69l17.24-1.034" stroke-width="1.2" stroke="#00f" stroke-miterlimit="10" fill="none"/><path d="M125.04 103.656l17.237-1.04" stroke-width="1.2" stroke="#000" stroke-miterlimit="10" fill="none"/><path d="M102.8 96.69h10v16h-10zm0 0" fill="#fff"/><use xlink:href="#a" x="102.801" y="109.067" fill="#00f"/><path d="M92.398 77.688l7.723-15.45" stroke-width="1.2" stroke="#000" stroke-miterlimit="10" fill="none"/><path d="M100.12 62.238l7.72-15.445" stroke-width="1.2" stroke="#f00" stroke-miterlimit="10" fill="none"/><path d="M85.13 74.055l7.722-15.45" stroke-width="1.2" stroke="#000" stroke-miterlimit="10" fill="none"/><path d="M92.852 58.605l7.718-15.445" stroke-width="1.2" stroke="#f00" stroke-miterlimit="10" fill="none"/><path d="M99.207 36.977h11v16h-11zm0 0" fill="#fff"/><use xlink:href="#b" x="99.207" y="49.353" fill="#f00"/><path d="M142.277 102.617l19.04 28.82M161.316 131.438l34.477-2.075M195.793 129.363l19.04 28.82M204.48 127.766l15.227 23.058M211.234 98.465l-15.44 30.898M214.832 158.184l34.477-2.075M249.31 156.11l15.44-30.9M243.582 149.387l12.356-24.72M264.75 125.21l-19.035-28.82M245.715 96.39l-34.48 2.075M242.754 104.71l-27.582 1.66" stroke-width="1.2" stroke="#000" stroke-miterlimit="10" fill="none"/><path d="M114.992 224.13l-7.722 15.448" stroke-width="1.2" stroke="#f00" stroke-miterlimit="10" fill="none"/><path d="M107.27 239.578l-7.72 15.445" stroke-width="1.2" stroke="#000" stroke-miterlimit="10" fill="none"/><path d="M109.992 216.13h11v16h-11zm0 0" fill="#fff"/><use xlink:href="#b" x="109.992" y="228.505" fill="#f00"/></g></svg>
